X: 2
I: linebreak $
T: Adson's Saraband
T: longways for three couples
C: 
P: Play 12 times through
K: C major
M: 6/4
L: 1/8
"C"e4e2 "G"d4c2 | "C"e2f2g2 "G"d4c2 | "G"B2c2d2 "C"e2A2B2 | "Am"c2B2A2 "C"G4F2 | "Am"E2F2G2 "Em"E2F2G2 | "F"A2B2c2 "G"B4A2 | 
"C"G2d2e2 "G"f2A2B2 | "C"c2d2e2 "G"d4c2 | "C"e4e2 "G"d4c2 | "C"e2f2g2 "G"d4c2 | "G"B2c2d2 "C"e2A2B2 | "Am"c2B2A2 "C"G4F2 | 
"Am"E2F2G2 "Em"E2F2G2 | "F"A2B2c2 "G"B4A2 | "C"G2d2e2 "Dm"f2e2d2 | "Am"c2A2B2 "C"c6 |] 

